X: 28049
T: Mozart On The Rampage
R: reel
M: 4/4
K: Dmajor
|:g3d Bdge|f3d Adfd|eA A2 aece|fA A2 a4|
g3d Bdge|f3d Adfd|eA A2 aece|1 cddc d4:|2 cddc d3||
|:c|B2 gB BgdB|A2 fA AfdA|A2 eA AecA|fAdf a4|
B2 gB BgdB|A2 fA AfdA|A2 eA AecA|1 cddc d4:|2 cddc d2 dc||
|:B2 gB fage|fAdf agfd|eAce aece|fAdf a4||
B2 gB fage|fAdf agfd|eAce aece|cddc d4||
|:gBBg BBgB|fAAf AAfA|eAAe AAeA|eAfA a4|
gBBg BBgB|fAAf AAfA|eA A2 aece|cddc d4||

